svg/fluentui-system-icons/ic_fluent_speaker_2_20_filled.svg

<svg width="20" height="20" viewBox="0 0 20 20" fill="none" xmlns="http://www.w3.org/2000/svg">
<path d="M12 3.00588C12 2.13286 10.9597 1.67903 10.3198 2.27288L6.4476 5.86626C6.35513 5.95208 6.23364 5.99976 6.10749 5.99976H3.5C2.67157 5.99976 2 6.67134 2 7.49976V12.4998C2 13.3282 2.67157 13.9998 3.5 13.9998H6.10749C6.23364 13.9998 6.35513 14.0474 6.4476 14.1333L10.3198 17.7266C10.9597 18.3205 12 17.8667 12 16.9936V3.00588ZM15.2537 4.6274C15.4594 4.44313 15.7755 4.46047 15.9598 4.66614C18.676 7.69772 18.676 12.3018 15.9598 15.3334C15.7756 15.5391 15.4594 15.5565 15.2538 15.3722C15.0481 15.1879 15.0308 14.8718 15.215 14.6661C17.591 12.0143 17.591 7.98523 15.215 5.33344C15.0307 5.12778 15.0481 4.81167 15.2537 4.6274ZM14.0785 12.933C13.8393 12.7952 13.757 12.4895 13.8948 12.2502C14.671 10.9026 14.7265 9.19139 13.8942 7.7497C13.7561 7.51056 13.838 7.20476 14.0772 7.06669C14.3163 6.92862 14.6221 7.01056 14.7602 7.2497C15.7782 9.01297 15.7084 11.1052 14.7614 12.7493C14.6235 12.9886 14.3178 13.0708 14.0785 12.933Z" fill="#212121"/>
</svg>

<svg xmlns="http://www.w3.org/2000/svg" width="20" height="20"><path d="M12 3.006c0-.873-1.04-1.327-1.68-.733L6.448 5.866a.5.5 0 0 1-.34.134H3.5A1.5 1.5 0 0 0 2 7.5v5A1.5 1.5 0 0 0 3.5 14h2.607a.5.5 0 0 1 .34.133l3.873 3.594c.64.593 1.68.14 1.68-.733V3.006Zm3.254 1.621a.5.5 0 0 1 .706.04 8 8 0 0 1 0 10.666.5.5 0 1 1-.745-.667 7 7 0 0 0 0-9.333.5.5 0 0 1 .039-.706Zm-1.175 8.306a.5.5 0 0 1-.184-.683 4.498 4.498 0 0 0 0-4.5.5.5 0 1 1 .865-.5 5.498 5.498 0 0 1 .001 5.5.5.5 0 0 1-.682.183Z"/></svg>
